packages/core/src/browser/icons/edit-json-dark.svg

<svg fill="none" height="16" viewBox="0 0 16 16" width="16" xmlns="http://www.w3.org/2000/svg"><path d="m2.22785 7.35986c.46293 0 .78842-.1085.97649-.3255.1302-.15913.1953-.3906.1953-.6944 0-.1302-.01447-.32188-.0434-.57504s-.0434-.44846-.0434-.5859c0-.13743-.00723-.34358-.0217-.61844-.02893-.24593-.0434-.41953-.0434-.5208 0-.69439.20253-1.20795.60759-1.54069.40507-.33273.9765-.49909 1.71429-.49909h.5425v1.28029h-.2821c-.31827 0-.54611.09042-.68355.27125-.13743.18083-.20614.45208-.20614.81374 0 .0868.01446.217.04339.3906.02894.217.0434.38336.0434.49909 0 .0868.00724.22423.0217.4123.02894.2604.0434.46293.0434.60759 0 .54973-.11573.96203-.34719 1.23689-.20253.24593-.5208.41953-.95479.5208.43399.11573.75226.28933.95479.52079.23146.28934.34719.70163.34719 1.2369 0 .15913-.01446.36886-.0434.62926-.02893.1881-.03978.3255-.03255.4123.00724.0868-.00361.2387-.03255.4557-.02893.1592-.04339.2749-.04339.3472 0 .3617.06871.6329.20614.8138.13744.1808.36528.2712.68355.2712h.2821v1.2803h-.5425c-1.50452 0-2.25678-.6799-2.25678-2.0398 0-.4918.02532-.8716.07595-1.1392.05063-.2677.07595-.6546.07595-1.16096 0-.67993-.38337-1.0199-1.15009-1.0199zm11.54435 1.15009c-.7668 0-1.1501.33996-1.1501 1.01989 0 .1302.0108.32188.0325.57506.0217.2531.0326.4448.0326.575.0434.2749.0651.6583.0651 1.1501 0 1.3599-.7668 2.0398-2.3002 2.0398h-.54252v-1.1501h.26042c.3182 0 .5461-.0904.6835-.2712.1375-.1809.2062-.4521.2062-.8138 0-.3616-.0217-.6365-.0651-.8246 0-.1157-.0145-.2857-.0434-.5099-.029-.2243-.0434-.39423-.0434-.50996 0-.53527.1157-.94756.3472-1.2369.2025-.23146.5208-.40506.9548-.52079-.434-.10127-.7523-.27487-.9548-.5208-.2315-.27486-.3472-.68716-.3472-1.23689 0-.14466.0144-.34719.0434-.60759.0289-.18807.0434-.3255.0434-.4123.0434-.23146.0651-.52079.0651-.86799s-.0724-.60759-.217-.78119c-.1447-.1736-.3689-.2821-.6727-.3255h-.26042v-1.28029h.54252c.7233 0 1.2875.16636 1.6926.49909.405.33274.6076.8463.6076 1.54069 0 .1302-.0109.32188-.0326.57505-.0217.25316-.0325.44484-.0325.57504-.0434.27487-.0724.65823-.0868 1.15009.0144.3038.0795.53527.1953.6944.188.217.5135.3255.9765.3255z" fill="#c5c5c5"/></svg>

<!--Copyright (c) Microsoft Corporation. All rights reserved.-->
<!--Copyright (C) 2018 Ericsson and others.-->
<!--Licensed under the MIT License. See License.txt in the project root for license information.-->
<svg width="16" height="16" viewBox="0 0 16 16" fill="none" xmlns="http://www.w3.org/2000/svg">
<path d="M2.22785 7.35986C2.69078 7.35986 3.01627 7.25136 3.20434 7.03436C3.33454 6.87523 3.39964 6.64376 3.39964 6.33996C3.39964 6.20976 3.38517 6.01808 3.35624 5.76492C3.32731 5.51176 3.31284 5.31646 3.31284 5.17902C3.31284 5.04159 3.30561 4.83544 3.29114 4.56058C3.26221 4.31465 3.24774 4.14105 3.24774 4.03978C3.24774 3.34539 3.45027 2.83183 3.85533 2.49909C4.2604 2.16636 4.83183 2 5.56962 2H6.11212V3.28029H5.83002C5.51175 3.28029 5.28391 3.37071 5.14647 3.55154C5.00904 3.73237 4.94033 4.00362 4.94033 4.36528C4.94033 4.45208 4.95479 4.58228 4.98372 4.75588C5.01266 4.97288 5.02712 5.13924 5.02712 5.25497C5.02712 5.34177 5.03436 5.4792 5.04882 5.66727C5.07776 5.92767 5.09222 6.1302 5.09222 6.27486C5.09222 6.82459 4.97649 7.23689 4.74503 7.51175C4.5425 7.75768 4.22423 7.93128 3.79024 8.03255C4.22423 8.14828 4.5425 8.32188 4.74503 8.55334C4.97649 8.84268 5.09222 9.25497 5.09222 9.79024C5.09222 9.94937 5.07776 10.1591 5.04882 10.4195C5.01989 10.6076 5.00904 10.745 5.01627 10.8318C5.02351 10.9186 5.01266 11.0705 4.98372 11.2875C4.95479 11.4467 4.94033 11.5624 4.94033 11.6347C4.94033 11.9964 5.00904 12.2676 5.14647 12.4485C5.28391 12.6293 5.51175 12.7197 5.83002 12.7197H6.11212V14H5.56962C4.0651 14 3.31284 13.3201 3.31284 11.9602C3.31284 11.4684 3.33816 11.0886 3.38879 10.821C3.43942 10.5533 3.46474 10.1664 3.46474 9.66004C3.46474 8.98011 3.08137 8.64014 2.31465 8.64014L2.22785 7.35986ZM13.7722 8.50995C13.0054 8.50995 12.6221 8.84991 12.6221 9.52984C12.6221 9.66004 12.6329 9.85172 12.6546 10.1049C12.6763 10.358 12.6872 10.5497 12.6872 10.6799C12.7306 10.9548 12.7523 11.3382 12.7523 11.83C12.7523 13.1899 11.9855 13.8698 10.4521 13.8698H9.90958V12.7197H10.17C10.4882 12.7197 10.7161 12.6293 10.8535 12.4485C10.991 12.2676 11.0597 11.9964 11.0597 11.6347C11.0597 11.2731 11.038 10.9982 10.9946 10.8101C10.9946 10.6944 10.9801 10.5244 10.9512 10.3002C10.9222 10.0759 10.9078 9.90597 10.9078 9.79024C10.9078 9.25497 11.0235 8.84268 11.255 8.55334C11.4575 8.32188 11.7758 8.14828 12.2098 8.03255C11.7758 7.93128 11.4575 7.75768 11.255 7.51175C11.0235 7.23689 10.9078 6.82459 10.9078 6.27486C10.9078 6.1302 10.9222 5.92767 10.9512 5.66727C10.9801 5.4792 10.9946 5.34177 10.9946 5.25497C11.038 5.02351 11.0597 4.73418 11.0597 4.38698C11.0597 4.03978 10.9873 3.77939 10.8427 3.60579C10.698 3.43219 10.4738 3.32369 10.17 3.28029H9.90958V2H10.4521C11.1754 2 11.7396 2.16636 12.1447 2.49909C12.5497 2.83183 12.7523 3.34539 12.7523 4.03978C12.7523 4.16998 12.7414 4.36166 12.7197 4.61483C12.698 4.86799 12.6872 5.05967 12.6872 5.18987C12.6438 5.46474 12.6148 5.8481 12.6004 6.33996C12.6148 6.64376 12.6799 6.87523 12.7957 7.03436C12.9837 7.25136 13.3092 7.35986 13.7722 7.35986V8.50995Z" fill="#C5C5C5"/>
</svg>
